X: 96
T: A Beigele
R: polka
M: 2/4
K: Gminor
K:GPhr
gGfG eGdG|cGdG eGfG|gGfG eGdG|(=BA)G^F G4:|
G2d2 (dc)(c=B)|(=BA)GA (BA)GF|G2d2 (dc)(c=B)|(=BA)GF G4:|
(=Bc)BA (GF)cF|(=Bc)BA (GF)cF|(=Bc)BA (GF)cF|(=EF)FF (EF)FF|
EFGA (=Bc)de|(fe)dc (=BA)GF|(=Bc)BA (GF)GA|G4 z4:|
K:GMin
c4 (CF)Ac|(cB)(BA) (AG)(GF)|c4 (CF)Ac|(cB)(BA) (AG)(GF)|
c4 (CF)Ac|(cB)(BA) (AG)(GF)|(dc)(c=B) (B_A)(AG)|G8:|

